packages/ckeditor5-icons/theme/icons/ai-improve-writing.svg

<svg viewBox="0 0 20 20" xmlns="http://www.w3.org/2000/svg">
<path d="M14.8315 15.502C15.2486 15.502 15.5864 15.8372 15.5864 16.251C15.586 16.6644 15.2484 17 14.8315 17H7.27979C6.86293 17 6.52431 16.6644 6.52393 16.251C6.52393 15.8372 6.86269 15.502 7.27979 15.502H14.8315Z"/>
<path d="M16.0688 3.00195C16.7547 3.01715 17.1858 3.71784 16.9204 4.32422C16.2304 5.89868 15.6485 7.0072 15.0269 7.73047C14.4638 8.38541 13.8577 8.73514 13.1431 8.85645C12.694 10.5922 11.4811 11.7104 10.4126 12.3828C9.83551 12.7459 9.28207 12.9927 8.87354 13.1484C8.6685 13.2266 8.49658 13.283 8.37451 13.3203C8.31379 13.3389 8.26408 13.3527 8.229 13.3623C8.21175 13.367 8.19737 13.3713 8.18701 13.374C8.18203 13.3753 8.17759 13.3761 8.17432 13.377L8.17041 13.3779L8.16846 13.3789C7.7641 13.4789 7.35278 13.2339 7.25146 12.833C7.15086 12.432 7.39646 12.0254 7.80029 11.9248L7.80322 11.9238C7.80735 11.9228 7.81515 11.9209 7.82568 11.918C7.84772 11.9119 7.88381 11.9019 7.93018 11.8877C8.02342 11.8592 8.16208 11.8136 8.33154 11.749C8.67217 11.6192 9.13064 11.4144 9.60303 11.1172C10.5551 10.5181 11.4909 9.59205 11.7437 8.19824C11.824 7.75486 12.2046 7.42876 12.6528 7.40625L12.8208 7.3916C13.203 7.34231 13.5153 7.17987 13.8774 6.75879C14.2537 6.32095 14.6591 5.62563 15.1704 4.53027C12.362 4.78322 10.0304 6.55457 8.21826 8.8623C6.22674 11.3986 4.9645 14.4626 4.48975 16.4248C4.39209 16.8266 3.98382 17.0748 3.57861 16.9785C3.17345 16.8819 2.92317 16.4772 3.02002 16.0752C3.53878 13.9308 4.88742 10.6661 7.02686 7.94141C9.16297 5.22116 12.1911 2.91686 16.0688 3.00195Z"/>
<path d="M4.44092 1.86914C4.6447 2.41986 5.07966 2.85481 5.63037 3.05859L7.49951 3.75L5.63037 4.44141C5.07965 4.64519 4.6447 5.08014 4.44092 5.63086L3.74951 7.5L3.05811 5.63086C2.85432 5.08014 2.41937 4.64519 1.86865 4.44141L-0.000488281 3.75L1.86865 3.05859C2.41937 2.85481 2.85432 2.41986 3.05811 1.86914L3.74951 0L4.44092 1.86914Z"/>
</svg>

<svg xmlns="http://www.w3.org/2000/svg" viewBox="0 0 20 20"><path d="M14.832 15.502a.75.75 0 0 1 .754.749.75.75 0 0 1-.755.749H7.28a.753.753 0 0 1-.756-.749c0-.414.339-.749.756-.749zm1.237-12.5a.946.946 0 0 1 .851 1.322c-.69 1.575-1.272 2.683-1.893 3.406-.563.655-1.17 1.005-1.884 1.126-.449 1.736-1.662 2.854-2.73 3.527a8.8 8.8 0 0 1-2.038.937q-.092.029-.146.042l-.042.012-.013.003H8.17l-.002.002a.76.76 0 0 1-.917-.546.75.75 0 0 1 .55-.908l.002-.001.023-.006.104-.03a7.3 7.3 0 0 0 1.673-.77c.952-.6 1.888-1.526 2.14-2.92a.97.97 0 0 1 .91-.792l.168-.014c.382-.05.694-.212 1.056-.633.377-.438.782-1.133 1.293-2.229-2.808.253-5.14 2.025-6.952 4.332-1.991 2.537-3.253 5.6-3.728 7.563a.757.757 0 0 1-.911.553.75.75 0 0 1-.559-.903c.519-2.144 1.867-5.409 4.007-8.134 2.136-2.72 5.164-5.024 9.042-4.939M4.44 1.87c.205.55.64.985 1.19 1.189l1.87.691-1.87.691c-.55.204-.985.64-1.19 1.19L3.75 7.5l-.692-1.87a2.01 2.01 0 0 0-1.19-1.189L0 3.75l1.869-.691c.55-.204.985-.64 1.19-1.19L3.748 0z"/></svg>
